src/img/del.svg

<svg width="12" height="12" viewBox="0 0 12 12" fill="none" xmlns="http://www.w3.org/2000/svg">
<path d="M11.4 2.40066H8.4V1.39873C8.38592 1.01465 8.22012 0.651817 7.93894 0.389776C7.65776 0.127734 7.28415 -0.0121362 6.9 0.000827006H5.1C4.71585 -0.0121362 4.34224 0.127734 4.06106 0.389776C3.77988 0.651817 3.61408 1.01465 3.6 1.39873V2.40066H0.6C0.44087 2.40066 0.288258 2.46387 0.175736 2.57639C0.0632141 2.6889 0 2.8415 0 3.00062C0 3.15974 0.0632141 3.31234 0.175736 3.42485C0.288258 3.53737 0.44087 3.60058 0.6 3.60058H1.2V10.2001C1.2 10.6775 1.38964 11.1353 1.72721 11.4728C2.06477 11.8104 2.52261 12 3 12H9C9.47739 12 9.93523 11.8104 10.2728 11.4728C10.6104 11.1353 10.8 10.6775 10.8 10.2001V3.60058H11.4C11.5591 3.60058 11.7117 3.53737 11.8243 3.42485C11.9368 3.31234 12 3.15974 12 3.00062C12 2.8415 11.9368 2.6889 11.8243 2.57639C11.7117 2.46387 11.5591 2.40066 11.4 2.40066ZM4.8 1.39873C4.8 1.30274 4.926 1.20074 5.1 1.20074H6.9C7.074 1.20074 7.2 1.30274 7.2 1.39873V2.40066H4.8V1.39873ZM9.6 10.2001C9.6 10.3592 9.53679 10.5118 9.42426 10.6244C9.31174 10.7369 9.15913 10.8001 9 10.8001H3C2.84087 10.8001 2.68826 10.7369 2.57574 10.6244C2.46321 10.5118 2.4 10.3592 2.4 10.2001V3.60058H9.6V10.2001Z" fill="#2E5BFF"/>
<path d="M4.2 9.00021C4.35913 9.00021 4.51174 8.937 4.62426 8.82448C4.73679 8.71197 4.8 8.55937 4.8 8.40025V6.00041C4.8 5.84129 4.73679 5.68869 4.62426 5.57618C4.51174 5.46366 4.35913 5.40045 4.2 5.40045C4.04087 5.40045 3.88826 5.46366 3.77574 5.57618C3.66321 5.68869 3.6 5.84129 3.6 6.00041V8.40025C3.6 8.55937 3.66321 8.71197 3.77574 8.82448C3.88826 8.937 4.04087 9.00021 4.2 9.00021Z" fill="#2E5BFF"/>
<path d="M7.8 9.00021C7.95913 9.00021 8.11174 8.937 8.22426 8.82448C8.33679 8.71197 8.4 8.55937 8.4 8.40025V6.00041C8.4 5.84129 8.33679 5.68869 8.22426 5.57618C8.11174 5.46366 7.95913 5.40045 7.8 5.40045C7.64087 5.40045 7.48826 5.46366 7.37574 5.57618C7.26321 5.68869 7.2 5.84129 7.2 6.00041V8.40025C7.2 8.55937 7.26321 8.71197 7.37574 8.82448C7.48826 8.937 7.64087 9.00021 7.8 9.00021Z" fill="#2E5BFF"/>
</svg>

<svg width="12" height="12" fill="none" xmlns="http://www.w3.org/2000/svg"><path d="M11.4 2.4h-3v-1A1.452 1.452 0 006.9 0H5.1a1.452 1.452 0 00-1.5 1.398V2.4h-3a.6.6 0 100 1.2h.6v6.6A1.8 1.8 0 003 12h6a1.8 1.8 0 001.8-1.8V3.6h.6a.6.6 0 000-1.2zm-6.6-1c0-.096.126-.198.3-.198h1.8c.174 0 .3.102.3.198v1H4.8V1.399zm4.8 8.8a.6.6 0 01-.6.6H3a.6.6 0 01-.6-.6V3.6h7.2v6.6z" fill="#2E5BFF"/><path d="M4.2 9a.6.6 0 00.6-.6V6a.6.6 0 10-1.2 0v2.4a.6.6 0 00.6.6zm3.6 0a.6.6 0 00.6-.6V6a.6.6 0 10-1.2 0v2.4a.6.6 0 00.6.6z" fill="#2E5BFF"/></svg>
